X: 356
T: Maruru Kaihua
%%abc-version 2.0
%%abcx-abcm2ps-target-version 5.9.1 (29 Sep 2008)
%%abc-creator hum2abc beta
%%abcx-conversion-date 2013/10/02 07:52:30
%%abc-edited-by Helmut Schaffrath
%%humdrum-veritas 3935214555
%%humdrum-veritas-data 1830782115
%%continueall 1
%%barnumbers 0
L: 1/16
M: 2/4
K: Bb
d'2 c' d' f2 f g [I:setbarnb 1]| 
b c' d' c' b2 g f | 
d'2 f2 g f2 d | 
c'8 | 
d'2 c' d' f2 f g | 
b c' d' c' b2 g f | 
d'2 f2 g f2 d | 
f8 |]  



